X: 10062
M: 6/8
L: 1/8
P: Lively
K: D
(A/G/) |\
|: g |\
f>gf fed | faa (a2g) | f>gf fed | gbb (b2g) |\
f>ga e>fg | d>ef fed | BdB AGF | GEE E2 :|


